src/img/img_trailers-active.svg

<svg width="29" height="21" viewBox="0 0 26 26" fill="none" xmlns="http://www.w3.org/2000/svg">
<path d="M27.7232 9.69643L25.0893 7.0625C24.5536 6.52679 23.8393 6.25893 23.0804 6.25893H21.4286V1.92857C21.4286 1.16964 20.7589 0.5 20 0.5H1.42857C0.625 0.5 0 1.16964 0 1.92857V16.9286C0 18.9375 1.5625 20.5 3.57143 20.5C4.73214 20.5 5.75893 19.9643 6.42857 19.0714C7.05357 19.9643 8.08036 20.5 9.28571 20.5C11.25 20.5 12.8571 18.9375 12.8571 16.9286C12.8571 16.7054 12.8125 16.4821 12.7679 16.2143H20.0446C20 16.4821 20 16.7054 20 16.9286C20 18.9375 21.5625 20.5 23.5714 20.5C25.5357 20.5 27.1429 18.9375 27.1429 16.9286C27.1429 16.7054 27.0982 16.4821 27.0536 16.2143H27.8571C28.2143 16.2143 28.5714 15.9018 28.5714 15.5V11.7054C28.5714 10.9464 28.2589 10.2321 27.7232 9.69643ZM3.57143 18.3571C2.76786 18.3571 2.14286 17.7321 2.14286 16.9286C2.14286 16.1696 2.76786 15.5 3.57143 15.5C4.33036 15.5 5 16.1696 5 16.9286C5 17.7321 4.33036 18.3571 3.57143 18.3571ZM9.28571 18.3571C8.48214 18.3571 7.85714 17.7321 7.85714 16.9286C7.85714 16.1696 8.48214 15.5 9.28571 15.5C10.0446 15.5 10.7143 16.1696 10.7143 16.9286C10.7143 17.7321 10.0446 18.3571 9.28571 18.3571ZM21.4286 8.35714H23.0804C23.2589 8.35714 23.4375 8.44643 23.5714 8.58036L25.5357 10.5H21.4286V8.35714ZM23.5714 18.3571C22.7679 18.3571 22.1429 17.7321 22.1429 16.9286C22.1429 16.1696 22.7679 15.5 23.5714 15.5C24.3304 15.5 25 16.1696 25 16.9286C25 17.7321 24.3304 18.3571 23.5714 18.3571Z" fill="#2AA7FF"/>
</svg>

<svg width="29" height="21" viewBox="0 0 26 26" fill="none" xmlns="http://www.w3.org/2000/svg"><path d="M27.72 9.7L25.1 7.06a2.8 2.8 0 00-2.01-.8h-1.65V1.93c0-.76-.67-1.43-1.43-1.43H1.43C.63.5 0 1.17 0 1.93v15c0 2 1.56 3.57 3.57 3.57 1.16 0 2.19-.54 2.86-1.43.62.9 1.65 1.43 2.86 1.43a3.55 3.55 0 003.57-3.57c0-.22-.05-.45-.1-.72h7.28c-.04.27-.04.5-.04.72 0 2 1.56 3.57 3.57 3.57a3.55 3.55 0 003.57-3.57c0-.22-.04-.45-.09-.72h.8c.36 0 .72-.3.72-.71v-3.8a2.8 2.8 0 00-.85-2zM3.57 18.36c-.8 0-1.43-.63-1.43-1.43 0-.76.63-1.43 1.43-1.43.76 0 1.43.67 1.43 1.43 0 .8-.67 1.43-1.43 1.43zm5.72 0c-.8 0-1.43-.63-1.43-1.43 0-.76.62-1.43 1.43-1.43.75 0 1.42.67 1.42 1.43 0 .8-.67 1.43-1.42 1.43zm12.14-10h1.65c.18 0 .36.09.5.22l1.96 1.92h-4.11V8.36zm2.14 10c-.8 0-1.43-.63-1.43-1.43 0-.76.63-1.43 1.43-1.43.76 0 1.43.67 1.43 1.43 0 .8-.67 1.43-1.43 1.43z" fill="#2AA7FF"/></svg>
